app/assets/svg/cat-on-map.svg

<svg width="57" height="79" viewBox="0 0 57 79" fill="none" xmlns="http://www.w3.org/2000/svg">
<g filter="url(#filter0_d)">
<path d="M35.5919 38.0398L21.4095 38.0325L18.6405 58.0786C18.5003 59.0942 19.2882 60 20.3121 60H36.6881C37.7119 60 38.4999 59.0942 38.3596 58.0786L35.5919 38.0398Z" fill="#FF7236"/>
<path d="M20.9702 41.2122C23.2171 42.4149 25.7791 43.1017 28.5001 43.1017C31.221 43.1017 33.7831 42.4149 36.03 41.2122L35.5918 38.0396L21.4094 38.0322L20.9702 41.2122Z" fill="#FFAA50"/>
<path d="M34.4062 16.9098L39.9546 11.3538C40.7093 10.598 41.9999 11.1333 41.9999 12.2022V27.0487C41.9999 22.2331 38.192 19.3044 34.4062 16.9098Z" fill="#FF7236"/>
<path d="M42 27.0488C42 34.5149 35.9558 40.5673 28.5001 40.5673C21.0443 40.5673 15.0002 34.5148 15.0002 27.0488C15.0002 19.5828 21.0442 14.3752 28.5001 14.3752C35.9559 14.3752 42 19.5827 42 27.0488Z" fill="#FFAA50"/>
<path d="M22.5938 27.0487C22.5938 20.542 26.3247 15.7537 31.2931 14.6298C30.3915 14.4641 29.458 14.3751 28.5 14.3751C26.0157 14.3751 23.696 14.9642 21.6965 16.0114L17.0453 11.3538C16.2906 10.598 15 11.1333 15 12.2022V27.0487C15 26.744 15 26.7456 15 27.0487C15 34.5148 21.0442 40.5671 28.4999 40.5671C29.458 40.5671 30.3915 40.4639 31.293 40.2739C26.3247 38.9851 22.5938 33.5553 22.5938 27.0487Z" fill="#FF7236"/>
<path d="M25.5468 35.4979C27.1778 35.4979 28.4999 34.363 28.4999 32.9632C28.4999 31.5633 27.1778 30.4285 25.5468 30.4285C23.9159 30.4285 22.5938 31.5633 22.5938 32.9632C22.5938 34.363 23.9159 35.4979 25.5468 35.4979Z" fill="#FFFDFB"/>
<path d="M31.4533 35.4976C33.0843 35.4976 34.4064 34.3628 34.4064 32.9629C34.4064 31.563 33.0843 30.4282 31.4533 30.4282C29.8224 30.4282 28.5003 31.563 28.5003 32.9629C28.5003 34.3628 29.8224 35.4976 31.4533 35.4976Z" fill="#FFFDFB"/>
<path d="M28.5002 32.9636C29.4322 32.9636 30.1877 32.2071 30.1877 31.2738C30.1877 30.3405 29.4322 29.584 28.5002 29.584C27.5682 29.584 26.8127 30.3405 26.8127 31.2738C26.8127 32.2071 27.5682 32.9636 28.5002 32.9636Z" fill="#FF913C"/>
<path d="M34.4031 50.6358C34.3652 50.1712 33.9722 49.8259 33.4926 49.8639C33.0278 49.9027 32.6835 50.3112 32.7222 50.7761L32.882 52.6965C33.0956 55.2635 31.0726 57.4652 28.5001 57.4652C25.9277 57.4652 23.9046 55.2635 24.1182 52.6965L24.278 50.7761C24.3167 50.3112 23.9723 49.9027 23.5076 49.8639C23.0298 49.8264 22.6358 50.1712 22.5971 50.6358L21.818 59.9998H35.1824L34.4031 50.6358Z" fill="#FFAA50"/>
<path d="M23.4377 27.8935C22.9713 27.8935 22.594 27.5152 22.594 27.0486V26.2038C22.594 25.7372 22.9714 25.3589 23.4377 25.3589C23.904 25.3589 24.2814 25.7372 24.2814 26.2038V27.0486C24.2814 27.5152 23.904 27.8935 23.4377 27.8935Z" fill="#1A212F"/>
<path d="M33.5625 27.8935C33.0961 27.8935 32.7188 27.5152 32.7188 27.0486V26.2038C32.7188 25.7372 33.0962 25.3589 33.5625 25.3589C34.0289 25.3589 34.4062 25.7372 34.4062 26.2038V27.0486C34.4063 27.5152 34.0289 27.8935 33.5625 27.8935Z" fill="#1A212F"/>
</g>
<defs>
<filter id="filter0_d" x="0" y="0" width="57" height="79" filterUnits="userSpaceOnUse" color-interpolation-filters="sRGB">
<feFlood flood-opacity="0" result="BackgroundImageFix"/>
<feColorMatrix in="SourceAlpha" type="matrix" values="0 0 0 0 0 0 0 0 0 0 0 0 0 0 0 0 0 0 127 0" result="hardAlpha"/>
<feOffset dy="4"/>
<feGaussianBlur stdDeviation="7.5"/>
<feColorMatrix type="matrix" values="0 0 0 0 0.575 0 0 0 0 0.575 0 0 0 0 0.575 0 0 0 0.25 0"/>
<feBlend mode="normal" in2="BackgroundImageFix" result="effect1_dropShadow"/>
<feBlend mode="normal" in="SourceGraphic" in2="effect1_dropShadow" result="shape"/>
</filter>
</defs>
</svg>

<svg width="57" height="79" fill="none" xmlns="http://www.w3.org/2000/svg"><g filter="url(#a)"><path d="m35.592 38.04-14.182-.008-2.77 20.047A1.69 1.69 0 0 0 20.313 60h16.376a1.69 1.69 0 0 0 1.672-1.921l-2.768-20.04Z" fill="#FF7236"/><path d="M20.97 41.212a15.908 15.908 0 0 0 7.53 1.89c2.721 0 5.283-.687 7.53-1.89l-.438-3.172-14.183-.008-.439 3.18Z" fill="#FFAA50"/><path d="m34.406 16.91 5.549-5.556c.754-.756 2.045-.22 2.045.848V27.05c0-4.816-3.808-7.745-7.594-10.14Z" fill="#FF7236"/><path d="M42 27.049c0 7.466-6.044 13.518-13.5 13.518S15 34.515 15 27.05c0-7.466 6.044-12.674 13.5-12.674S42 19.583 42 27.05Z" fill="#FFAA50"/><path d="M22.594 27.049c0-6.507 3.73-11.295 8.7-12.42a15.442 15.442 0 0 0-2.794-.254c-2.484 0-4.804.59-6.803 1.636l-4.652-4.657c-.754-.756-2.045-.22-2.045.848V27.05c0-.305 0-.303 0 0 0 7.466 6.044 13.518 13.5 13.518.958 0 1.892-.103 2.793-.293-4.968-1.289-8.7-6.719-8.7-13.225Z" fill="#FF7236"/><path d="M25.547 35.498c1.63 0 2.953-1.135 2.953-2.535 0-1.4-1.322-2.535-2.953-2.535-1.631 0-2.953 1.135-2.953 2.535 0 1.4 1.322 2.535 2.953 2.535ZM31.453 35.498c1.631 0 2.953-1.135 2.953-2.535 0-1.4-1.322-2.535-2.953-2.535-1.63 0-2.953 1.135-2.953 2.535 0 1.4 1.322 2.535 2.953 2.535Z" fill="#FFFDFB"/><path d="M28.5 32.964c.932 0 1.688-.757 1.688-1.69a1.689 1.689 0 1 0-1.688 1.69Z" fill="#FF913C"/><path d="M34.403 50.636a.835.835 0 0 0-.91-.772.844.844 0 0 0-.77.912l.159 1.92a4.4 4.4 0 0 1-4.382 4.77 4.4 4.4 0 0 1-4.382-4.77l.16-1.92a.844.844 0 1 0-1.68-.14L21.817 60h13.364l-.779-9.364Z" fill="#FFAA50"/><path d="M23.438 27.893a.844.844 0 0 1-.844-.844v-.845a.844.844 0 1 1 1.687 0v.845a.844.844 0 0 1-.843.845ZM33.563 27.893a.844.844 0 0 1-.844-.844v-.845a.844.844 0 1 1 1.687 0v.845a.844.844 0 0 1-.843.845Z" fill="#1A212F"/></g><defs><filter id="a" x="0" y="0" width="57" height="79" filterUnits="userSpaceOnUse" color-interpolation-filters="sRGB"><feFlood flood-opacity="0" result="BackgroundImageFix"/><feColorMatrix in="SourceAlpha" values="0 0 0 0 0 0 0 0 0 0 0 0 0 0 0 0 0 0 127 0" result="hardAlpha"/><feOffset dy="4"/><feGaussianBlur stdDeviation="7.5"/><feColorMatrix values="0 0 0 0 0.575 0 0 0 0 0.575 0 0 0 0 0.575 0 0 0 0.25 0"/><feBlend in2="BackgroundImageFix" result="effect1_dropShadow"/><feBlend in="SourceGraphic" in2="effect1_dropShadow" result="shape"/></filter></defs></svg>
